src/img/clients/PROGLASS.svg

<svg width="315" height="64" viewBox="0 0 315 64" fill="none" xmlns="http://www.w3.org/2000/svg">
<path d="M19.9999 29.9001C19.8217 29.9471 19.6341 29.9439 19.4576 29.891C19.2812 29.838 19.1228 29.7374 18.9999 29.6001L11.3999 22.3001C11.2686 22.1732 11.1745 22.0129 11.1279 21.8363C11.0813 21.6598 11.0838 21.4739 11.1354 21.2988C11.1869 21.1236 11.2854 20.9659 11.4201 20.8427C11.5549 20.7196 11.7208 20.6357 11.8999 20.6001L33.6999 16.1001H34.2999L44.6999 21.3001C44.8961 21.3843 45.0603 21.5291 45.1683 21.7133C45.2764 21.8975 45.3226 22.1114 45.3002 22.3238C45.2779 22.5362 45.1881 22.7358 45.0441 22.8935C44.9001 23.0512 44.7094 23.1586 44.4999 23.2001L19.9999 29.9001Z" fill="#CAD5DD"/>
<path d="M22.2999 31.8C22.0892 31.866 21.9063 31.9999 21.7796 32.1808C21.653 32.3617 21.5898 32.5795 21.5999 32.8L23.3999 57.8C23.3999 58.4 24.0999 58.8 24.6999 58.6L49.2999 50.2C49.6999 50.1 49.9999 49.7 49.9999 49.2L49.4999 25.8C49.503 25.65 49.4722 25.5013 49.41 25.3648C49.3477 25.2283 49.2556 25.1076 49.1403 25.0116C49.0251 24.9155 48.8897 24.8467 48.7442 24.81C48.5987 24.7734 48.4469 24.77 48.2999 24.8L22.2999 31.8V31.8Z" fill="#CAD5DD" stroke="#CAD5DD"/>
<path d="M12.1999 26.3001C12.0543 26.1557 11.8677 26.0596 11.6656 26.0248C11.4635 25.99 11.2556 26.0181 11.0701 26.1054C10.8845 26.1928 10.7303 26.335 10.6283 26.5129C10.5263 26.6909 10.4815 26.8958 10.4999 27.1001L13.4999 47.2001C13.4999 47.4001 13.4999 47.6001 13.6999 47.7001L18.9999 54.1001C19.1455 54.2445 19.332 54.3406 19.5341 54.3754C19.7363 54.4102 19.9442 54.3821 20.1297 54.2948C20.3153 54.2074 20.4695 54.0652 20.5715 53.8873C20.6735 53.7093 20.7183 53.5044 20.6999 53.3001L18.9999 33.8001C18.9999 33.5837 18.9297 33.3732 18.7999 33.2001L12.1999 26.3001V26.3001Z" fill="url(#paint0_linear_4258_10182)"/>
<path d="M84.5999 32.7001H59.6999C58.9999 32.7001 58.3999 33.3001 58.3999 34.1001V43.7001C58.3999 44.0449 58.5369 44.3755 58.7807 44.6193C59.0245 44.8631 59.3551 45.0001 59.6999 45.0001C60.0447 45.0001 60.3753 44.8631 60.6191 44.6193C60.8629 44.3755 60.9999 44.0449 60.9999 43.7001V40.5001H84.5999C86.0999 40.5001 87.6999 39.2001 87.6999 36.5001C87.6999 33.9001 86.0999 32.7001 84.5999 32.7001V32.7001ZM84.5999 37.8001H60.9999V35.4001H84.5999C84.7999 35.4001 85.0999 35.7001 85.0999 36.6001C85.0999 37.5001 84.7999 37.8001 84.5999 37.8001V37.8001ZM119 42.4001L113.2 40.4001H116.7C118.2 40.4001 119.9 39.3001 119.9 36.6001C119.9 33.9001 118.2 32.7001 116.7 32.7001H91.7999C91.0999 32.7001 90.4999 33.3001 90.4999 34.1001V43.7001C90.4999 44.0581 90.6421 44.4015 90.8953 44.6547C91.1485 44.9079 91.4919 45.0501 91.8499 45.0501C92.2079 45.0501 92.5513 44.9079 92.8045 44.6547C93.0577 44.4015 93.1999 44.0581 93.1999 43.7001V40.5001H104.9L118.1 45.0001H118.6C119.1 45.0001 119.6 44.7001 119.8 44.1001C120 43.4001 119.7 42.7001 119 42.4001V42.4001ZM93.1999 35.4001H116.7C116.9 35.4001 117.2 35.7001 117.2 36.6001C117.2 37.5001 116.9 37.8001 116.7 37.8001H93.1999V35.4001V35.4001ZM149.4 33.6001C148.1 32.8001 146.6 32.6001 145.8 32.6001H129C126 32.6001 122.8 34.3001 122.8 38.8001C122.8 41.8001 124.2 43.3001 125.4 44.1001C126.8 44.9001 128.2 45.0001 129 45.0001H145.9C146.9 45.0001 148.3 44.9001 149.5 44.0001C150.7 43.4001 152.2 41.9001 152.2 38.8001C152.2 35.8001 150.7 34.3001 149.5 33.6001H149.4ZM148.1 41.8001C147.401 42.1937 146.599 42.3679 145.8 42.3001H129C127.4 42.3001 125.5 41.7001 125.5 38.8001C125.5 37.4001 125.9 36.4001 126.8 35.8001C127.4 35.5001 128.1 35.3001 129 35.3001H145.9C147.6 35.3001 149.5 35.9001 149.5 38.8001C149.5 40.3001 149.1 41.3001 148.2 41.8001H148.1Z" fill="#CAD5DD"/>
<path d="M181.3 45.0001C182.5 45.0001 183.2 44.4001 183.5 43.9001C184 43.3001 184.2 42.4001 184.2 41.1001C184.2 37.7001 182 37.5001 181.2 37.5001H169.5C168.8 37.5001 168.2 38.1001 168.2 38.8001C168.2 39.6001 168.8 40.2001 169.5 40.2001H181.3C181.4 40.2001 181.5 40.4001 181.5 41.1001L181.4 42.3001H161C159.4 42.3001 157.5 41.7001 157.5 38.8001C157.5 37.4001 157.9 36.4001 158.8 35.8001C159.4 35.5001 160.2 35.3001 161 35.3001H182.8C183.6 35.3001 184.2 34.7001 184.2 34.0001C184.2 33.2001 183.6 32.6001 182.8 32.6001H161C158 32.6001 154.8 34.3001 154.8 38.8001C154.8 41.8001 156.3 43.3001 157.4 44.0001C158.487 44.6534 159.732 44.9991 161 45.0001H181.3V45.0001ZM215 45.0001C215.8 45.0001 216.4 44.4001 216.4 43.6001C216.4 42.9001 215.8 42.3001 215 42.3001H193.2C192.3 42.3001 191.5 42.1001 191 41.8001C190 41.2001 189.7 40.3001 189.7 38.8001V34.0001C189.7 33.6421 189.558 33.2987 189.305 33.0455C189.051 32.7923 188.708 32.6501 188.35 32.6501C187.992 32.6501 187.649 32.7923 187.395 33.0455C187.142 33.2987 187 33.6421 187 34.0001V38.8001C187 43.3001 190.2 45.0001 193.2 45.0001H215ZM242.3 32.7001H225.4C222.4 32.7001 219.2 34.3001 219.2 38.8001V43.7001C219.2 44.4001 219.8 45.0001 220.5 45.0001C221.3 45.0001 221.9 44.4001 221.9 43.7001V41.0001H245.9V43.6001C245.9 43.9449 246.037 44.2755 246.281 44.5193C246.525 44.7631 246.855 44.9001 247.2 44.9001C247.545 44.9001 247.875 44.7631 248.119 44.5193C248.363 44.2755 248.5 43.9449 248.5 43.6001V38.7001C248.5 34.2001 245.3 32.6001 242.3 32.6001V32.7001ZM223.2 35.9001C223.8 35.6001 224.5 35.4001 225.4 35.4001H242.3C243.3 35.4001 244 35.6001 244.5 35.9001C245.4 36.4001 245.8 37.2001 245.9 38.4001H221.9C221.9 37.2001 222.4 36.4001 223.2 35.9001ZM270.6 37.3001H255.6C254.4 37.1001 254.2 37.0001 254.1 36.9001V35.8001C254.5 35.3001 256.7 35.3001 258.7 35.3001H272.2C274 35.3001 275.8 35.3001 276.9 35.6001C277.6 35.7001 277.9 35.9001 277.9 35.9001L278 36.2001C278 36.5581 278.142 36.9015 278.395 37.1547C278.649 37.4079 278.992 37.5501 279.35 37.5501C279.708 37.5501 280.051 37.4079 280.305 37.1547C280.558 36.9015 280.7 36.5581 280.7 36.2001C280.7 35.0001 280.2 33.5001 277.5 33.0001C276.1 32.7001 274.2 32.7001 272.2 32.7001H258.8C255.6 32.7001 253.4 32.7001 252.2 33.9001C251.6 34.5001 251.3 35.2001 251.3 36.1001C251.3 37.0001 251.5 38.1001 252.3 38.8001C253.3 39.8001 255 40.0001 258.7 40.0001H276C277.4 40.2001 277.8 40.4001 277.9 40.5001V40.9001C277.9 41.7001 277.9 41.8001 277.5 41.9001C276.6 42.3001 274.4 42.3001 272.1 42.3001H256.2C254.7 42.1001 254.2 41.7001 254 41.5001V41.3001C254 40.5001 253.3 39.9001 252.6 39.9001C251.8 39.9001 251.2 40.5001 251.2 41.3001C251.219 41.6991 251.317 42.0903 251.488 42.451C251.66 42.8116 251.902 43.1343 252.2 43.4001C253.5 44.8001 256 45.0001 258.5 45.0001H272.2C277.8 45.0001 280.7 44.8001 280.7 41.0001C280.7 40.0001 280.4 39.2001 279.8 38.6001C278.5 37.3001 276.2 37.3001 270.6 37.3001V37.3001ZM302.8 37.3001H287.7C286.6 37.1001 286.3 37.0001 286.3 36.9001L286.2 36.1001V35.8001C286.7 35.3001 288.9 35.3001 290.9 35.3001H304.4C306.2 35.3001 308 35.3001 309.1 35.6001L310.1 35.9001L310.2 36.2001C310.2 36.5581 310.342 36.9015 310.595 37.1547C310.849 37.4079 311.192 37.5501 311.55 37.5501C311.908 37.5501 312.251 37.4079 312.505 37.1547C312.758 36.9015 312.9 36.5581 312.9 36.2001C312.9 35.0001 312.3 33.5001 309.7 33.0001C308.2 32.7001 306.3 32.7001 304.4 32.7001H290.9C287.7 32.7001 285.6 32.7001 284.4 33.9001C283.8 34.5001 283.4 35.2001 283.4 36.1001C283.4 37.0001 283.6 38.1001 284.4 38.8001C285.4 39.8001 287.2 40.0001 290.8 40.0001H308.3C309.7 40.2001 310 40.4001 310.1 40.5001L310.2 40.9001C310.2 41.7001 310.2 41.8001 309.8 41.9001C308.8 42.3001 306.7 42.3001 304.4 42.3001H288.4C286.9 42.1001 286.4 41.7001 286.3 41.5001L286.2 41.3001C286.2 40.5001 285.6 39.9001 284.8 39.9001C284.1 39.9001 283.5 40.5001 283.5 41.3001C283.511 42.0914 283.835 42.8462 284.4 43.4001C285.8 44.8001 288.4 45.0001 290.8 45.0001H304.4C309.9 45.0001 312.9 44.8001 312.9 41.0001C312.9 40.0001 312.6 39.2001 312 38.6001C310.7 37.3001 308.4 37.3001 302.8 37.3001V37.3001Z" fill="#CAD5DD"/>
<path d="M44.4999 34.2999L25.7999 39.5999C25.2999 39.7999 24.7999 40.3999 24.7999 40.8999L25.1999 48.4999C25.1999 48.9999 25.6999 49.3999 26.1999 49.1999C26.7999 49.0999 27.1999 48.4999 27.1999 47.8999L27.0999 45.3999L44.7999 40.3999C45.8999 40.0999 47.0999 38.6999 46.9999 36.6999C46.9999 34.5999 45.6999 33.9999 44.4999 34.2999ZM44.6999 38.2999L26.9999 43.2999V41.3999L44.5999 36.3999C44.7999 36.3999 44.9999 36.4999 44.9999 37.1999C44.9999 37.8999 44.8999 38.1999 44.6999 38.2999V38.2999ZM37.8999 22.9999C38.5999 22.7999 38.7999 22.3999 38.7999 21.9999C38.7999 21.6999 38.4999 21.2999 37.8999 20.6999C36.2999 19.0999 34.7999 19.3999 34.3999 19.4999L26.9999 21.4999C26.4999 21.6999 26.3999 22.0999 26.6999 22.3999C27.0999 22.7999 27.6999 22.8999 28.1999 22.7999L35.5999 20.7999C35.6999 20.7999 35.8999 20.7999 36.1999 21.0999L36.6999 21.6999H36.5999L23.8999 25.1999C22.8999 25.4999 21.3999 25.5999 19.9999 24.1999C19.3999 23.5999 19.1999 23.0999 19.4999 22.6999C19.6999 22.3999 20.0999 22.1999 20.6999 21.9999L34.3999 18.2999C34.8999 18.0999 34.9999 17.7999 34.5999 17.3999C34.2999 17.0999 33.5999 16.8999 33.0999 16.9999L19.3999 20.7999C17.4999 21.2999 16.2999 22.5999 18.3999 24.6999C19.7999 26.0999 21.3999 26.4999 22.3999 26.6999C23.6999 26.7999 24.5999 26.6999 25.0999 26.4999L37.9999 22.9999H37.8999Z" fill="white"/>
<defs>
<linearGradient id="paint0_linear_4258_10182" x1="30.4999" y1="16.5001" x2="30.4999" y2="60.5001" gradientUnits="userSpaceOnUse">
<stop stop-color="#CAD5DD"/>
<stop offset="0.9999" stop-color="#798A97"/>
<stop offset="1" stop-color="#63BAE9"/>
</linearGradient>
</defs>
</svg>

<svg width="315" height="64" fill="none" xmlns="http://www.w3.org/2000/svg"><path d="M20 29.9a1 1 0 0 1-1-.3l-7.6-7.3a1 1 0 0 1 .5-1.7l21.8-4.5h.6l10.4 5.2a1 1 0 0 1-.2 1.9L20 29.9Z" fill="url(#a)"/><path d="M22.3 31.8a1 1 0 0 0-.7 1l1.8 25c0 .6.7 1 1.3.8l24.6-8.4c.4-.1.7-.5.7-1l-.5-23.4a1 1 0 0 0-1.2-1l-26 7Z" fill="url(#b)" stroke="#5BBCE5"/><path d="M12.2 26.3a1 1 0 0 0-1.7.8l3 20.1c0 .2 0 .4.2.5l5.3 6.4a1 1 0 0 0 1.7-.8L19 33.8a1 1 0 0 0-.2-.6l-6.6-6.9Z" fill="url(#c)"/><path d="M84.6 32.7H59.7c-.7 0-1.3.6-1.3 1.4v9.6a1.3 1.3 0 0 0 2.6 0v-3.2h23.6c1.5 0 3.1-1.3 3.1-4 0-2.6-1.6-3.8-3.1-3.8Zm0 5.1H61v-2.4h23.6c.2 0 .5.3.5 1.2 0 .9-.3 1.2-.5 1.2Zm34.4 4.6-5.8-2h3.5c1.5 0 3.2-1.1 3.2-3.8 0-2.7-1.7-3.9-3.2-3.9H91.8c-.7 0-1.3.6-1.3 1.4v9.6a1.3 1.3 0 0 0 2.7 0v-3.2h11.7l13.2 4.5h.5c.5 0 1-.3 1.2-.9.2-.7-.1-1.4-.8-1.7Zm-25.8-7h23.5c.2 0 .5.3.5 1.2 0 .9-.3 1.2-.5 1.2H93.2v-2.4Zm56.2-1.8c-1.3-.8-2.8-1-3.6-1H129c-3 0-6.2 1.7-6.2 6.2 0 3 1.4 4.5 2.6 5.3 1.4.8 2.8.9 3.6.9h16.9c1 0 2.4-.1 3.6-1 1.2-.6 2.7-2.1 2.7-5.2 0-3-1.5-4.5-2.7-5.2Zm-1.3 8.2a4 4 0 0 1-2.3.5H129c-1.6 0-3.5-.6-3.5-3.5 0-1.4.4-2.4 1.3-3 .6-.3 1.3-.5 2.2-.5h16.9c1.7 0 3.6.6 3.6 3.5 0 1.5-.4 2.5-1.3 3Z" fill="#6FC3F2"/><path d="M181.3 45c1.2 0 1.9-.6 2.2-1.1.5-.6.7-1.5.7-2.8 0-3.4-2.2-3.6-3-3.6h-11.7c-.7 0-1.3.6-1.3 1.3 0 .8.6 1.4 1.3 1.4h11.8c.1 0 .2.2.2.9l-.1 1.2H161c-1.6 0-3.5-.6-3.5-3.5 0-1.4.4-2.4 1.3-3 .6-.3 1.4-.5 2.2-.5h21.8c.8 0 1.4-.6 1.4-1.3 0-.8-.6-1.4-1.4-1.4H161c-3 0-6.2 1.7-6.2 6.2 0 3 1.5 4.5 2.6 5.2a7 7 0 0 0 3.6 1h20.3Zm33.7 0c.8 0 1.4-.6 1.4-1.4 0-.7-.6-1.3-1.4-1.3h-21.8c-.9 0-1.7-.2-2.2-.5-1-.6-1.3-1.5-1.3-3V34a1.3 1.3 0 0 0-2.7 0v4.8c0 4.5 3.2 6.2 6.2 6.2H215Zm27.3-12.3h-16.9c-3 0-6.2 1.6-6.2 6.1v4.9c0 .7.6 1.3 1.3 1.3.8 0 1.4-.6 1.4-1.3V41h24v2.6a1.3 1.3 0 0 0 2.6 0v-4.9c0-4.5-3.2-6.1-6.2-6.1Zm-19.1 3.2c.6-.3 1.3-.5 2.2-.5h16.9c1 0 1.7.2 2.2.5.9.5 1.3 1.3 1.4 2.5h-24c0-1.2.5-2 1.3-2.5Zm47.4 1.4h-15c-1.2-.2-1.4-.3-1.5-.4v-1.1c.4-.5 2.6-.5 4.6-.5h13.5c1.8 0 3.6 0 4.7.3.7.1 1 .3 1 .3l.1.3a1.3 1.3 0 0 0 2.7 0c0-1.2-.5-2.7-3.2-3.2-1.4-.3-3.3-.3-5.3-.3h-13.4c-3.2 0-5.4 0-6.6 1.2-.6.6-.9 1.3-.9 2.2 0 .9.2 2 1 2.7 1 1 2.7 1.2 6.4 1.2H276c1.4.2 1.8.4 1.9.5v.4c0 .8 0 .9-.4 1-.9.4-3.1.4-5.4.4h-15.9c-1.5-.2-2-.6-2.2-.8v-.2c0-.8-.7-1.4-1.4-1.4-.8 0-1.4.6-1.4 1.4a3 3 0 0 0 1 2.1c1.3 1.4 3.8 1.6 6.3 1.6H272.2c5.6 0 8.5-.2 8.5-4 0-1-.3-1.8-.9-2.4-1.3-1.3-3.6-1.3-9.2-1.3Zm32.2 0h-15.1c-1.1-.2-1.4-.3-1.4-.4l-.1-.8v-.3c.5-.5 2.7-.5 4.7-.5H304.4c1.8 0 3.6 0 4.7.3l1 .3.1.3a1.3 1.3 0 0 0 2.7 0c0-1.2-.6-2.7-3.2-3.2-1.5-.3-3.4-.3-5.3-.3h-13.5c-3.2 0-5.3 0-6.5 1.2-.6.6-1 1.3-1 2.2 0 .9.2 2 1 2.7 1 1 2.8 1.2 6.4 1.2h17.5c1.4.2 1.7.4 1.8.5l.1.4c0 .8 0 .9-.4 1-1 .4-3.1.4-5.4.4H288.4c-1.5-.2-2-.6-2.1-.8l-.1-.2c0-.8-.6-1.4-1.4-1.4-.7 0-1.3.6-1.3 1.4a3 3 0 0 0 .9 2.1c1.4 1.4 4 1.6 6.4 1.6H304.4c5.5 0 8.5-.2 8.5-4 0-1-.3-1.8-.9-2.4-1.3-1.3-3.6-1.3-9.2-1.3Z" fill="#000"/><path d="m44.5 34.3-18.7 5.3c-.5.2-1 .8-1 1.3l.4 7.6c0 .5.5.9 1 .7.6-.1 1-.7 1-1.3l-.1-2.5 17.7-5c1.1-.3 2.3-1.7 2.2-3.7 0-2.1-1.3-2.7-2.5-2.4Zm.2 4-17.7 5v-1.9l17.6-5c.2 0 .4.1.4.8 0 .7-.1 1-.3 1.1ZM37.9 23c.7-.2.9-.6.9-1 0-.3-.3-.7-.9-1.3-1.6-1.6-3.1-1.3-3.5-1.2l-7.4 2c-.5.2-.6.6-.3.9.4.4 1 .5 1.5.4l7.4-2c.1 0 .3 0 .6.3l.5.6h-.1l-12.7 3.5c-1 .3-2.5.4-3.9-1-.6-.6-.8-1.1-.5-1.5.2-.3.6-.5 1.2-.7l13.7-3.7c.5-.2.6-.5.2-.9-.3-.3-1-.5-1.5-.4l-13.7 3.8c-1.9.5-3.1 1.8-1 3.9 1.4 1.4 3 1.8 4 2 1.3.1 2.2 0 2.7-.2L38 23Z" fill="#fff"/><defs><linearGradient id="a" x1="12.5" y1="21" x2="37" y2="21.5" gradientUnits="userSpaceOnUse"><stop stop-color="#1A8AC6"/><stop offset="1" stop-color="#69BDEC"/></linearGradient><linearGradient id="b" x1="34.5" y1="27" x2="36" y2="53" gradientUnits="userSpaceOnUse"><stop stop-color="#FDFEFF"/><stop offset="1" stop-color="#118EC9"/></linearGradient><linearGradient id="c" x1="30.5" y1="16.5" x2="30.5" y2="60.5" gradientUnits="userSpaceOnUse"><stop stop-color="#0876B3"/><stop offset="1" stop-color="#63BAE9"/></linearGradient></defs></svg>
